src/pos-icons/source-repository.svg

<svg height="24" viewBox="0 0 24 24" width="24" xmlns="http://www.w3.org/2000/svg"><path d="m6 2h12a2 2 0 0 1 2 2v16a2 2 0 0 1 -2 2h-12a2 2 0 0 1 -2-2v-16a2 2 0 0 1 2-2m6.75 11.5c2.75 0 3.49-2.03 3.68-3.1.91-.29 1.57-1.14 1.57-2.15 0-1.25-1-2.25-2.25-2.25s-2.25 1-2.25 2.25c0 .94.57 1.75 1.39 2.08-.22.67-.89 1.67-2.89 1.67-1.38 0-2.34.35-3 .84v-3.97c.87-.31 1.5-1.14 1.5-2.12 0-1.25-1-2.25-2.25-2.25s-2.25 1-2.25 2.25c0 .98.63 1.81 1.5 2.12v6.26c-.87.31-1.5 1.14-1.5 2.12 0 1.25 1 2.25 2.25 2.25s2.25-1 2.25-2.25c0-.93-.56-1.75-1.37-2.07.28-.68 1.1-1.68 3.62-1.68m-4.5 3a.75.75 0 0 1 .75.75.75.75 0 0 1 -.75.75.75.75 0 0 1 -.75-.75.75.75 0 0 1 .75-.75m0-10.5a.75.75 0 0 1 .75.75.75.75 0 0 1 -.75.75.75.75 0 0 1 -.75-.75.75.75 0 0 1 .75-.75m7.5 1.5a.75.75 0 0 1 .75.75.75.75 0 0 1 -.75.75.75.75 0 0 1 -.75-.75.75.75 0 0 1 .75-.75z"/></svg>

<?xml version="1.0" encoding="UTF-8"?><!DOCTYPE svg PUBLIC "-//W3C//DTD SVG 1.1//EN" "http://www.w3.org/Graphics/SVG/1.1/DTD/svg11.dtd"><svg xmlns="http://www.w3.org/2000/svg" xmlns:xlink="http://www.w3.org/1999/xlink" version="1.1" id="mdi-source-repository" width="24" height="24" viewBox="0 0 24 24"><path d="M6,2H18A2,2 0 0,1 20,4V20A2,2 0 0,1 18,22H6A2,2 0 0,1 4,20V4A2,2 0 0,1 6,2M12.75,13.5C15.5,13.5 16.24,11.47 16.43,10.4C17.34,10.11 18,9.26 18,8.25C18,7 17,6 15.75,6C14.5,6 13.5,7 13.5,8.25C13.5,9.19 14.07,10 14.89,10.33C14.67,11 14,12 12,12C10.62,12 9.66,12.35 9,12.84V8.87C9.87,8.56 10.5,7.73 10.5,6.75C10.5,5.5 9.5,4.5 8.25,4.5C7,4.5 6,5.5 6,6.75C6,7.73 6.63,8.56 7.5,8.87V15.13C6.63,15.44 6,16.27 6,17.25C6,18.5 7,19.5 8.25,19.5C9.5,19.5 10.5,18.5 10.5,17.25C10.5,16.32 9.94,15.5 9.13,15.18C9.41,14.5 10.23,13.5 12.75,13.5M8.25,16.5A0.75,0.75 0 0,1 9,17.25A0.75,0.75 0 0,1 8.25,18A0.75,0.75 0 0,1 7.5,17.25A0.75,0.75 0 0,1 8.25,16.5M8.25,6A0.75,0.75 0 0,1 9,6.75A0.75,0.75 0 0,1 8.25,7.5A0.75,0.75 0 0,1 7.5,6.75A0.75,0.75 0 0,1 8.25,6M15.75,7.5A0.75,0.75 0 0,1 16.5,8.25A0.75,0.75 0 0,1 15.75,9A0.75,0.75 0 0,1 15,8.25A0.75,0.75 0 0,1 15.75,7.5Z" /></svg>
